packages/components/src/telekom/icons/weather/heavy-sleet/selected.svg

<?xml version="1.0" encoding="UTF-8"?>
<svg width="24px" height="24px" viewBox="0 0 24 24" version="1.1" xmlns="http://www.w3.org/2000/svg" xmlns:xlink="http://www.w3.org/1999/xlink">
    <title>icon/weather/heavy-sleet/selected</title>
    <g id="icon/weather/heavy-sleet/selected" stroke="none" stroke-width="1" fill="none" fill-rule="evenodd">
        <path d="M14.74725,18.40425 C14.8543611,18.3064722 15.017966,18.3769907 15.0357932,18.5072953 L15.03525,18.55875 L14.44825,22.30675 C14.31975,23.12675 13.55225,23.68675 12.73225,23.55875 C11.5331607,23.3707143 11.0565625,21.9269203 11.8556811,21.0614413 L11.94975,20.96775 L14.74725,18.40425 Z M9.85025,14.21775 L11.14925,14.96775 L10.26425,16.50025 L12.00025,16.50025 L12.00025,18.00025 L10.33325,18.00025 L11.14925,19.41325 L9.85025,20.16325 L9.00025,18.69025 L8.14925,20.16325 L6.85025,19.41325 L7.66625,18.00025 L6.00025,18.00025 L6.00025,16.50025 L7.73525,16.50025 L6.85025,14.96775 L8.14925,14.21775 L9.00025,15.69025 L9.85025,14.21775 Z M17.59375,11.70975 C17.6851875,11.62575 17.8240937,11.6837734 17.8426533,11.7930459 L17.84275,11.84275 L17.19025,16.00925 C17.05225,16.89725 16.21925,17.50425 15.33225,17.36525 C14.0312155,17.1624914 13.5151133,15.5935592 14.3856453,14.6566263 L14.48425,14.55875 L17.59375,11.70975 Z M13.51075,0.54725 C16.72675,0.54725 19.55975,2.55125 20.66025,5.56675 C22.54725,6.56075 23.74925,8.53775 23.74925,10.69425 C23.74925,13.74425 21.39225,16.24475 18.41675,16.46125 L18.448375,16.3368125 L18.448375,16.3368125 L18.47475,16.20975 L19.12675,12.04325 C19.19275,11.62575 19.07325,11.20025 18.79825,10.87875 C18.52175,10.55525 18.11925,10.36975 17.69425,10.36975 C17.3839643,10.36975 17.084699,10.4689337 16.8364424,10.6518724 L16.71675,10.75025 L13.60625,13.60075 C13.37225,13.81515 13.18177,14.06059 13.033018,14.32555 L12.92925,14.52775 L9.49925,12.54025 C9.228875,12.383625 8.903375,12.3632813 8.61888379,12.4798887 L8.49975,12.53825 L5.20225,14.43075 C4.92625,14.5894167 4.74427469,14.8685772 4.70724314,15.1800888 L4.70025,15.29825 L4.70025,16.41375 C2.18375,16.02525 0.24925,13.83775 0.24925,11.19825 C0.24925,9.28625 1.28125,7.53225 2.91625,6.60025 C3.05575,4.11075 5.11275,2.12875 7.62075,2.12875 C7.98975,2.12875 8.35775,2.17375 8.72075,2.26225 C10.07775,1.15325 11.76275,0.54725 13.51075,0.54725 Z" id="Shape" fill="#262626"></path>
    </g>
</svg>

<svg width="24" height="24" xmlns="http://www.w3.org/2000/svg"><path d="M14.747 18.404a.174.174 0 01.289.103v.052l-.588 3.748a1.502 1.502 0 01-1.716 1.252c-1.199-.188-1.675-1.632-.876-2.498l.094-.093 2.797-2.564zM9.85 14.218l1.3.75-.886 1.532H12V18h-1.667l.816 1.413-1.299.75L9 18.69l-.85 1.473-1.3-.75L7.666 18H6v-1.5h1.735l-.885-1.532 1.3-.75L9 15.69l.85-1.472zm7.744-2.508a.15.15 0 01.249.083v.05l-.653 4.166a1.626 1.626 0 01-1.858 1.356c-1.3-.203-1.817-1.771-.946-2.708l.098-.098 3.11-2.85zM13.51.547a7.596 7.596 0 017.15 5.02 5.805 5.805 0 013.088 5.127c0 3.05-2.357 5.55-5.332 5.767l.031-.124.027-.127.652-4.167a1.45 1.45 0 00-2.29-1.391l-.12.098-3.11 2.85c-.235.215-.425.46-.574.726l-.104.202L9.5 12.54a1 1 0 00-.88-.06l-.12.058-3.297 1.893a1.001 1.001 0 00-.495.75l-.007.117v1.116a5.275 5.275 0 01-4.45-5.216A5.299 5.299 0 012.915 6.6c.14-2.49 2.197-4.471 4.705-4.471.369 0 .737.045 1.1.133A7.558 7.558 0 0113.51.547z" fill="#000" fill-rule="evenodd"/></svg>
